src/assets/outline/ArchiveMinus.svg

<svg width="24" height="24" viewBox="0 0 24 24"  xmlns="http://www.w3.org/2000/svg">
<path d="M14.5 11.4004H9.5C9.09 11.4004 8.75 11.0604 8.75 10.6504C8.75 10.2404 9.09 9.90039 9.5 9.90039H14.5C14.91 9.90039 15.25 10.2404 15.25 10.6504C15.25 11.0604 14.91 11.4004 14.5 11.4004Z" />
<path d="M4.93006 22.75C4.51006 22.75 4.12006 22.65 3.77006 22.45C3.00006 22 2.56006 21.09 2.56006 19.96V5.86C2.56006 3.32 4.63006 1.25 7.17006 1.25H16.8201C19.3601 1.25 21.4301 3.32 21.4301 5.86V19.95C21.4301 21.08 20.9901 21.99 20.2201 22.44C19.4501 22.89 18.4401 22.84 17.4501 22.29L12.5701 19.58C12.2801 19.42 11.7101 19.42 11.4201 19.58L6.54006 22.29C6.00006 22.59 5.45006 22.75 4.93006 22.75ZM7.18006 2.75C5.47006 2.75 4.07006 4.15 4.07006 5.86V19.95C4.07006 20.54 4.24006 20.98 4.54006 21.15C4.84006 21.33 5.31006 21.27 5.82006 20.98L10.7001 18.27C11.4401 17.86 12.5601 17.86 13.3001 18.27L18.1801 20.98C18.6901 21.27 19.1601 21.33 19.4601 21.15C19.7601 20.97 19.9301 20.53 19.9301 19.95V5.86C19.9301 4.15 18.5301 2.75 16.8201 2.75H7.18006Z" />
</svg>

<?xml version="1.0" encoding="UTF-8"?>
<svg width="24" height="24" viewBox="0 0 24 24" xmlns="http://www.w3.org/2000/svg">
 <path d="m14.5 11.4h-5c-0.41 0-0.75-0.34-0.75-0.75s0.34-0.75001 0.75-0.75001h5c0.41 0 0.75 0.34001 0.75 0.75001s-0.34 0.75-0.75 0.75z"/>
 <path d="m4.9301 22.75c-0.42 0-0.81-0.1-1.16-0.3-0.77-0.45-1.21-1.36-1.21-2.49v-14.1c0-2.54 2.07-4.61 4.61-4.61h9.65c2.54 0 4.61 2.07 4.61 4.61v14.09c0 1.13-0.44 2.04-1.21 2.49s-1.78 0.4-2.77-0.15l-4.88-2.71c-0.29-0.16-0.86-0.16-1.15 0l-4.88 2.71c-0.54 0.3-1.09 0.46-1.61 0.46zm2.25-20c-1.71 0-3.11 1.4-3.11 3.11v14.09c0 0.59 0.17 1.03 0.47 1.2 0.3 0.18 0.77 0.12 1.28-0.17l4.88-2.71c0.74-0.41 1.86-0.41 2.6 0l4.88 2.71c0.51 0.29 0.98 0.35 1.28 0.17s0.47-0.62 0.47-1.2v-14.09c0-1.71-1.4-3.11-3.11-3.11h-9.64z"/>
</svg>
